X:38
T:Anyám, anyám, kedves édesanyám
M:4/4
L:1/4
K:F
DAAG | c F E<C | D2 D z |
A>d e<d | dcAG | A2 A z |
A d e<c | d c/d/ c/B/A/G/ | c>d A z |
D/D/c/B/ A<G | c F E/ C E/| D2 D z |

